X: 9050
T: Da Foostra
R: reel
M: 4/4
K: Fmajor
A2GF Acd2|c2fA GFD2|F2AD FGAc|AGFG AG G/G/G:|
|:d2gf dfgd|f/f/f fd cdfc|d2gf dfg2|fdcA AGG2:|

